X: 38212
T: Spruce Drool, The
R: reel
M: 4/4
K: Eminor
|eeBd eBdB|ABFA BFAF|EBeB gBeB|AFDA GAFA
eeBd eBdB|ABFA BFAF|EBeB gBeg|fdAF e4:|
gggd ABGF|GEED EFGA|B2eB gBeB|AFDA GAFA
gggd ABGF|GEED EFGA|B2eB gBeg|fdAF e4:|

